X:1
T:Ye boundless realms of joy
T:Ye boundless realms of joy (John Broderip)
C:John Broderip
Z:p45, A New Set of Anthems
Z:and Psalm Tunes,
Z:London: [1745]
%%score [ 1 2 3 4 ]
L:1/8
M:3/2
K:Gmin
V:1 treble nm="[Treble]"
V:2 treble nm="[Alto]"
V:3 treble-8 transpose=-12 nm="[Tenor]"
V:4 bass nm="[Bass]"
V:1
 B4 | B8 B4 | c8 c4 | d8 d4 | f8 c4 | (A6 B2) G4 | F8 A4 | (B4 A4) G4 | (d4 A4) B4 | A8 f4 | %10
w: Let|them a-|dore the|Lord, And|praise his|ho- * ly|name, By|whose _ al-|migh- * ty|word They|
w: Ye|bound- less|realms of|joy, Ex-|alt your|ma- * ker’s|fame, His|praise _ your|songs _ em-|ploy A-|
w: Thou|moon, that|rul’st the|night, And|sun, that|guid’st _ the|day; Ye|glitt- * ’ring|stars _ of|light, To|
 (f4 ^c4) d4 | d8 ^c4 | d8 d4 | d8 B4 | f8 F4 | B8 B4 | B8 c4 | c8 c4 | c8 d4 | e8 c4 | B8 |] %21
w: all _ from|no- thing|came; And|all shall|last From|chan- ges|free; His|firm de-|cree Stands|e- ver|fast.|
w: bove _ the|star- ry|frame; Your|voi- ces|raise, Ye|che- ru-|bim And|se- ra-|phim, To|sing his|praise.|
w: him _ your|ho- mage|pay; His|praise de-|clare, Ye|heav’ns a-|bove, And|clouds that|move In|li- quid|air.|
V:2
 F4 | F8 F4 | F8 F4 | F8 F4 | F8 G4 | A8 C4 | C8 F4 | F8 G4 | A8 G4 | ^F8 A4 | G8 A4 | A8 A4 | %12
w: Let|them a-|dore the|Lord, And|praise his|ho- ly|name, By|whose al-|migh- ty|word They|all from|no- thing|
w: Ye|bound- less|realms of|joy, Ex-|alt your|ma- ker’s|fame, His|praise your|songs em-|ploy A-|bove the|star- ry|
w: Thou|moon, that|rul’st the|night, And|sun, that|guid’st the|day; Ye|glitt- ’ring|stars of|light, To|him your|ho- mage|
 ^F8 =F4 | F8 F4 | F8 F4 | F8 F4 | E8 E4 | E8 E4 | E8 F4 | G8 (F2 E2) | D8 |] %21
w: came; And|all shall|last From|chan- ges|free; His|firm de-|cree Stands|e- ver _|fast.|
w: frame; Your|voi- ces|raise, Ye|che- ru-|bim And|se- ra-|phim, To|sing his _|praise.|
w: pay; His|praise de-|clare, Ye|heav’ns a-|bove, And|clouds that|move In|li- quid _|air.|
V:3
 d4 | d8 d4 | c8 c4 | B8 d4 | d8 =e4 | (f4 c4) B4 | A8 c4 | B8 B4 | (d4 ^F4) G4 | A8 d4 | %10
w: Let|them a-|dore the|Lord, And|praise his|ho- * ly|name, By|whose al-|migh- * ty|word They|
w: Ye|bound- less|realms of|joy, Ex-|alt your|ma- * ker’s|fame, His|praise your|songs _ em-|ploy A-|
w: Thou|moon, that|rul’st the|night, And|sun, that|guid’st _ the|day; Ye|glitt- ’ring|stars _ of|light, To|
 (B4 A4) A4 | f8 =e4 | d8 d4 | d8 d4 | c8 A4 | B8 A4 | G8 G4 | c8 B4 | A8 B4 | c8 A4 | B8 |] %21
w: all _ from|no- thing|came; And|all shall|last From|chan- ges|free; His|firm de-|cree Stands|e- ver|fast.|
w: bove _ the|star- ry|frame; Your|voi- ces|raise, Ye|che- ru-|bim And|se- ra-|phim, To|sing his|praise.|
w: him _ your|ho- mage|pay; His|praise de-|clare, Ye|heav’ns a-|bove, And|clouds that|move In|li- quid|air.|
V:4
 B,,4 | B,,8 D,4 | F,8 F,4 | B,8 B,4 | D8 C4 | F,8 C,4 | F,8 F,4 | B,,8 E,4 | D,8 G,,4 | D,8 D,4 | %10
w: Let|them a-|dore the|Lord, And|praise his|ho- ly|name, By|whose al-|migh- ty|word They|
w: Ye|bound- less|realms of|joy, Ex-|alt your|ma- ker’s|fame, His|praise your|songs em-|ploy A-|
w: Thou|moon, that|rul’st the|night, And|sun, that|guid’st the|day; Ye|glitt- ’ring|stars of|light, To|
 G,8 (F,2 G,2) | A,8 A,,4 | D,8 B,,4 | (B,,6 C,2) (D,2 E,2) | %14
w: all from _|no- thing|came; And|all _ shall _|
w: bove the _|star- ry|frame; Your|voi- * ces _|
w: him your _|ho- mage|pay; His|praise _ de- *|
"^Notes:Only the first stanza of the text is given in the source: the remainder of the psalm has here been added editorially.The alto and tenor parts are printed in the alto and tenor clefs respectively in the source.""^9-10.By hills and mountains, (allIn grateful concert join’d,)By cedars stately tall,And trees for fruit design’d;By ev’ry beast,And creeping thing,And fowl of wing,His name be blest.11-12.Let all of royal birth,With those of humbler frame,And judges of the earth,His matchless praise proclaim.In this designLet youths with maids,And hoary headsWith children join." F,8 F,4 | %15
w: last From|
w: raise, Ye|
w: clare, Ye|
 D,8 D,4 | E,8 E,4 | %17
w: chan- ges|free; His|
w: che- ru-|bim And|
w: heav’ns a-|bove, And|
 C,8"^13.United zeal be shownHis wondrous fame to raise,Whose glorious name aloneDeserves our endless praise.Earth’s utmost endsHis pow’r obey;His glorious swayThe sky transcends.14.His chosen saints to grace,He sets them up on high,And favours Israel’s race,Who still to him are nigh.O therefore raiseYour grateful voice,And still rejoiceThe Lord to praise!" C,4 | %18
w: firm de-|
w: se- ra-|
w: clouds that|
 F,8 B,4 | E,8 F,4 | B,,8 |] %21
w: cree Stands|e- ver|fast.|
w: phim, To|sing his|praise.|
w: move In|li- quid|air.|

